X: 21
T: Fransk Reel
B:[[Notböcker/Melodier til gamle danske Almuedanse for Violin solo]]
O:Danmark
Z:Søren Bak Vestergaard
M: 2/4
L: 1/8
K: C
Gcec|cBce|dGAB|(c/d/)e/f/ g2|DGBA|GEGB|AD^FA|GB/A/ G2:|\
|:cG/^F/ (.G.c)|Gece|dGAB|(c/d/)e/f/ g2|!downbow!cG/^F/ (.G.c)|Gece|dGBd|ce/d/ c2:|\
|:CE G2|GA/G/ FE|FA c2|cd/c/ BA|Gc e2|ef/e/ dc|BcdB|c2 c2:|

